packages/sources/assets/src/assets/flag-sa.svg

<svg width="28" height="20" viewBox="0 0 28 20" fill="none" xmlns="http://www.w3.org/2000/svg">
<rect width="28" height="20" rx="2" fill="white"/>
<mask id="mask0_503_3648" style="mask-type:alpha" maskUnits="userSpaceOnUse" x="0" y="0" width="28" height="20">
<rect width="28" height="20" rx="2" fill="white"/>
</mask>
<g mask="url(#mask0_503_3648)">
<rect width="28" height="20" fill="#128C4B"/>
<path fill-rule="evenodd" clip-rule="evenodd" d="M6.66669 12H17.3334V11.0787C17.3334 10.5831 17.8549 10.2608 18.2982 10.4824L18.6667 10.6667V12H20.6667C21.0349 12 21.3334 12.2985 21.3334 12.6667V13.3333C21.3334 14.0697 20.7364 14.6667 20 14.6667H18C17.6318 14.6667 17.3334 14.3682 17.3334 14V13.3333H8.27616C8.09935 13.3333 7.92978 13.2631 7.80476 13.1381L6.66669 12Z" fill="white"/>
<path fill-rule="evenodd" clip-rule="evenodd" d="M6.66669 8.13808C6.66669 8.04968 6.70181 7.96489 6.76432 7.90238L7.09765 7.56905C7.22783 7.43887 7.22783 7.22782 7.09765 7.09764L6.76432 6.76431C6.70181 6.7018 6.66669 6.61701 6.66669 6.52861V5.66668C6.66669 5.48258 6.81593 5.33334 7.00002 5.33334H7.74538C7.88601 5.33334 8.00002 5.44735 8.00002 5.58799C8.00002 5.85669 8.36226 5.94221 8.48242 5.70187L8.58181 5.50311C8.63383 5.39906 8.74017 5.33334 8.85649 5.33334H10.3334C10.5174 5.33334 10.6667 5.48258 10.6667 5.66668C10.6667 5.85077 10.5174 6.00001 10.3334 6.00001H9.66669C9.48259 6.00001 9.33335 6.14925 9.33335 6.33334C9.33335 6.51744 9.48259 6.66668 9.66669 6.66668H10.3334C10.5174 6.66668 10.6667 6.81592 10.6667 7.00001V9.00001C10.6667 9.1841 10.5174 9.33334 10.3334 9.33334H9.66669C9.48259 9.33334 9.33335 9.1841 9.33335 9.00001V8.33334C9.33335 8.14925 9.48259 8.00001 9.66669 8.00001C9.85078 8.00001 10 7.85077 10 7.66668C10 7.48258 9.85078 7.33334 9.66669 7.33334H9.00002C8.81593 7.33334 8.66669 7.48258 8.66669 7.66668V9.00001C8.66669 9.18411 8.51745 9.33334 8.33335 9.33334C8.14926 9.33334 8.00002 9.18411 8.00002 9.00001V8.33334C8.00002 8.14925 7.85078 8.00001 7.66669 8.00001C7.48259 8.00001 7.33335 8.14925 7.33335 8.33334V9.00001C7.33335 9.1841 7.18412 9.33334 7.00002 9.33334C6.81593 9.33334 6.66669 9.18411 6.66669 9.00001V8.13808Z" fill="white"/>
<path fill-rule="evenodd" clip-rule="evenodd" d="M17.3333 8.13808C17.3333 8.04968 17.3684 7.96489 17.4309 7.90238L17.7643 7.56905C17.8945 7.43887 17.8945 7.22782 17.7643 7.09764L17.4309 6.76431C17.3684 6.7018 17.3333 6.61701 17.3333 6.52861V5.66668C17.3333 5.48258 17.4826 5.33334 17.6666 5.33334H18.412C18.5526 5.33334 18.6666 5.44735 18.6666 5.58799C18.6666 5.85669 19.0289 5.94221 19.1491 5.70187L19.2484 5.50311C19.3005 5.39906 19.4068 5.33334 19.5231 5.33334H21C21.1841 5.33334 21.3333 5.48258 21.3333 5.66668C21.3333 5.85077 21.1841 6.00001 21 6.00001H20.3333C20.1492 6.00001 20 6.14925 20 6.33334C20 6.51744 20.1492 6.66668 20.3333 6.66668H21C21.1841 6.66668 21.3333 6.81592 21.3333 7.00001V9.00001C21.3333 9.1841 21.1841 9.33334 21 9.33334H20.3333C20.1492 9.33334 20 9.1841 20 9.00001V8.33334C20 8.14925 20.1492 8.00001 20.3333 8.00001C20.5174 8.00001 20.6666 7.85077 20.6666 7.66668C20.6666 7.48258 20.5174 7.33334 20.3333 7.33334H19.6666C19.4826 7.33334 19.3333 7.48258 19.3333 7.66668V9.00001C19.3333 9.18411 19.1841 9.33334 19 9.33334C18.8159 9.33334 18.6666 9.18411 18.6666 9.00001V8.33334C18.6666 8.14925 18.5174 8.00001 18.3333 8.00001C18.1492 8.00001 18 8.14925 18 8.33334V9.00001C18 9.1841 17.8507 9.33334 17.6666 9.33334C17.4826 9.33334 17.3333 9.18411 17.3333 9.00001V8.13808Z" fill="white"/>
<path fill-rule="evenodd" clip-rule="evenodd" d="M16 6.33022C16 6.51604 15.8958 6.77084 15.7593 6.90736L15.574 7.09266C15.4411 7.22559 15.4375 7.43751 15.574 7.57403L15.7593 7.75933C15.8922 7.89225 16 8.1427 16 8.33647V8.99689C16 9.18271 15.8573 9.33334 15.6635 9.33334H15.0031C14.8173 9.33334 14.6667 9.19065 14.6667 8.99689V8.33647C14.6667 8.15065 14.6051 8.12306 14.512 8.30925L14.1546 9.0241C14.0692 9.19489 13.8431 9.33334 13.6697 9.33334H12.3303C12.1479 9.33334 12 9.17872 12 9.00001C12 8.81592 12.1427 8.66668 12.3365 8.66668H12.9969C13.1827 8.66668 13.3333 8.51205 13.3333 8.33334C13.3333 8.14925 13.1906 8.00001 12.9969 8.00001H12.3365C12.1506 8.00001 12 7.85664 12 7.67302V5.66033C12 5.47974 12.1427 5.33334 12.3365 5.33334H12.9969C13.1827 5.33334 13.3333 5.47603 13.3333 5.6698V6.33022C13.3333 6.51604 13.1787 6.66668 13 6.66668C12.8159 6.66668 12.6667 6.8213 12.6667 7.00001C12.6667 7.18411 12.8094 7.33334 13.0031 7.33334H13.6635C13.8494 7.33334 14 7.17641 14 7.00308V5.6636C14 5.48121 14.1546 5.33334 14.3333 5.33334C14.5174 5.33334 14.6667 5.47603 14.6667 5.6698V6.33022C14.6667 6.51604 14.8213 6.66668 15 6.66668C15.1841 6.66668 15.3333 6.52399 15.3333 6.33022V5.6698C15.3333 5.48398 15.488 5.33334 15.6667 5.33334C15.8508 5.33334 16 5.47603 16 5.6698V6.33022Z" fill="white"/>
</g>
</svg>

<svg width="28" height="20" fill="none" xmlns="http://www.w3.org/2000/svg"><rect width="28" height="20" rx="2" fill="#fff"/><mask id="a" style="mask-type:alpha" maskUnits="userSpaceOnUse" x="0" y="0" width="28" height="20"><rect width="28" height="20" rx="2" fill="#fff"/></mask><g mask="url(#a)"><path fill="#128C4B" d="M0 0h28v20H0z"/><path fill-rule="evenodd" clip-rule="evenodd" d="M6.667 12h10.666v-.921c0-.496.522-.818.965-.597l.369.185V12h2c.368 0 .666.299.666.667v.666c0 .737-.597 1.334-1.333 1.334h-2a.667.667 0 0 1-.667-.667v-.667H8.276a.667.667 0 0 1-.471-.195L6.667 12Zm0-3.862c0-.088.035-.173.097-.236l.334-.333a.333.333 0 0 0 0-.471l-.334-.334a.333.333 0 0 1-.097-.235v-.862c0-.184.149-.334.333-.334h.745c.141 0 .255.114.255.255 0 .269.362.354.482.114l.1-.199a.307.307 0 0 1 .274-.17h1.477a.333.333 0 1 1 0 .667h-.666a.333.333 0 1 0 0 .667h.666c.184 0 .334.149.334.333v2c0 .184-.15.333-.334.333h-.666A.333.333 0 0 1 9.333 9v-.667c0-.184.15-.333.334-.333a.333.333 0 0 0 0-.667H9a.333.333 0 0 0-.333.334V9A.333.333 0 0 1 8 9v-.667a.333.333 0 0 0-.667 0V9a.333.333 0 0 1-.667 0v-.862Zm10.666 0c0-.088.035-.173.098-.236l.333-.333a.333.333 0 0 0 0-.471l-.333-.334a.333.333 0 0 1-.098-.235v-.862c0-.184.15-.334.334-.334h.745c.14 0 .255.114.255.255 0 .269.362.354.482.114l.1-.199a.307.307 0 0 1 .274-.17H21A.333.333 0 0 1 21 6h-.667a.333.333 0 0 0 0 .667H21c.184 0 .333.149.333.333v2a.333.333 0 0 1-.333.333h-.667A.333.333 0 0 1 20 9v-.667c0-.184.15-.333.333-.333a.333.333 0 1 0 0-.667h-.666a.333.333 0 0 0-.334.334V9a.333.333 0 0 1-.667 0v-.667a.333.333 0 1 0-.667 0V9a.333.333 0 0 1-.667 0v-.862ZM16 6.33c0 .186-.104.44-.24.577l-.186.186a.337.337 0 0 0 0 .481l.185.185a.92.92 0 0 1 .241.577v.66a.331.331 0 0 1-.336.337h-.66a.331.331 0 0 1-.337-.336v-.66c0-.186-.062-.214-.155-.028l-.357.715a.612.612 0 0 1-.485.31h-1.34A.335.335 0 0 1 12 9a.33.33 0 0 1 .336-.333h.66a.338.338 0 0 0 .337-.334.33.33 0 0 0-.336-.333h-.66A.33.33 0 0 1 12 7.673V5.66c0-.18.143-.327.336-.327h.66c.187 0 .337.143.337.337v.66a.338.338 0 0 1-.333.337.337.337 0 0 0-.333.333.33.33 0 0 0 .336.333h.66a.34.34 0 0 0 .337-.33v-1.34c0-.182.155-.33.333-.33a.33.33 0 0 1 .334.337v.66c0 .186.154.337.333.337a.33.33 0 0 0 .333-.337v-.66a.34.34 0 0 1 .334-.337.33.33 0 0 1 .333.337v.66Z" fill="#fff"/></g></svg>
